X:1
T:Marechiare
T:Marechiare
T:CANTO NAPOLETANO
T:Francesco Paolo Tosti
T:Salvatore Di Giacomo
T:Scetate, Carulì, ca l'aria è doce. quanno maie tanto tiempo aggio aspettato? P'accompagnà li suone cu la voce stasera na chitarra aggio portato. Scetate, Carulì, ca l'aria è doce. Ah! Ah! O scetate, o scetate, scetate, Carulì, ca l'area è doce. 
T:Chi dice ca li stelle so lucente nun sape l'uocchie ca tu tiene nfronte. Sti doje stelle li saccio io sulamente. dint'a lu core ne tengo li ponte. Chi dice ca li stelle so lucente? 
T:by IMSLP - Pubblico dominio
T:by IMSLP - Pubblico dominio
T:by IMSLP - Pubblico dominio
T:by IMSLP - Pubblico dominio
C:Francesco Paolo Tosti
Z:Salvatore Di Giacomo
Z:by IMSLP - Pubblico dominio
%%score 1 { ( 2 4 5 ) | 3 }
L:1/8
Q:1/4=115
M:2/4
K:D
V:1 treble nm="Voice"
V:2 treble nm="Piano"
V:4 treble 
V:5 treble 
V:3 bass 
V:1
"^Allegretto" z4 | z4 |: z4 | z4 | z4 | z4 | z4 | z4 | z4 || z4 | z4 |"^CANTO" z4 | z2!p! F F | %13
w: ||||||||||||Quan\- no|
 B2 B c | d c B3/2 ^A/ | B2 B B | B B c B | A G F G | F>E D>C | B,4- |!<(! B, z z2!<)! | z4 | %22
w: spon\- ta la|lu\- naa Ma\- re|chia\- re pu\-|re li pi\- sce|'nce fann' a l'am\-|mo _ _ _|re.~.~.|||
 z2 F F | B2 B c | d c B3/2 ^A/ | B2 B B | B B c B | A3/2 ^G/ A B | (A>=G F>E) | D!p! z F F | %30
w: se re\-|vo\- ta\- no|l'on\- ne de lu|ma\- re, pe|la pri\- ez\- za|ca\- gne\- no cu\-|lo _ _ _|re, quan\- no|
 F2 F F | F ^E F G | (F>=E D>C) | B,4- | B, z z2 | z4 |"^cresc." z F F3/2 F/ | B2 B c | %38
w: spon\- ta la|lu\- naa Ma\- re|chia _ _ _|re.~.~.|||A Ma\- re|chia\- ree nce|
 ^d2 c3/2 B/ | ^G2 G G | ^G G ^A B | ^A ^G F3/2 G/ | (^G2 F2) | ^D2"^sentito" B B | B2 c ^d | %45
w: sta na fe\-|ne\- sta, la|pas\- si\- o\- ne|mia nce tuz\- zu\-|le _|a, nu ca\-|ro\- fano ad\-|
 c2 B2 | B2 c ^d | B B B B | c2 B c | B ^A ^G3/2 F/ | (^A2 F2) | ^D F F F | F2 F F | %53
w: do\- ra|in\- t'a na|te\- sta, pas\- sa|l'ac\- qua pe|sot\- toe mur\- mu\-|lé _|a: A Ma\- re|chia\- re nce|
 F>^E F3/2 =G/ | (F>=E D>C) | B,4- | B, z"^sentito" (B2 | ^A3 =G | F{F^A}G F{FA}G | F4- | %60
w: sta _ na fe\-|ne _ _ _|sta.~.~.|* Ah!|_ _|||
 F) z!pp! (B2 | ^A3 =G | F{F^A}G F{FA}G | F4- | F)"^cresc." d d d | (!>!=c3 G) | E .=c .c .c | %67
w: * Ah!|_ _|||* A Ma\- re|chia\- _|re, a Ma\- re\-|
 (!>!B3 F) | D2 !>!F2 |!>(! F>^E F3/2 =G/!>)! |!>(! F>=E D>C!>)! | B,4- | B, z z2 :| z4 | z4 | z4 | %76
w: chia\- _|re nce|sta _ na fe\-|ne _ _ _|sta.~.~.|||||
 z4 | z4 | z4 | z4 | z4 | z4 | z4 | z4 | z4 |] %85
w: |||||||||
V:2
 z4 | z4 |:!p! (!>!d4 | c2 e>d | c2 B2) | z (BAB | =cAF>D | D2)!>(! (^C>D | E2 =C2!>)! || B,4-) | %10
 B,4 |!<(! B,[F,B,D] z [F,B,D]!<)! | z [F,B,D] z [F,B,D] | z [F,B,D] z [F,B,D] | %14
 z [F,B,D] z [F,B,D] | z [G,B,E] z [G,B,E] | z [F,B,D] z [F,B,D] | z [G,B,E] z [G,B,E] | %18
 z [F,^A,E] z [F,A,E] | z [F,B,D] z [F,B,D] | z [F,B,D] z [F,B,D] |!>(! z [F,B,D] z [F,B,D]!>)! | %22
 z [F,B,D] z [F,B,D] | z [F,B,D] z [F,B,D] | z [F,B,E] z [F,B,E] | z [F,B,D] z [F,B,D] | %26
 z [F,B,D] z [F,B,D] | z [F,A,D] z [F,A,D] | z [F,G,D] z [F,G,D] | z [F,A,D] z [F,A,D] | %30
 z [F,^A,E] z [F,A,E] | z [F,B,D] z [F,B,D] | z [F,^A,E] z [F,A,E] | z [F,B,^D] z [F,B,D] | %34
!<(! z [F,B,^D] z [F,B,D]!<)! |!>(! z [F,B,^D] z [F,B,D]!>)! | z [F,B,^D] z [F,B,D] | %37
 z [F,B,^D] z [F,B,D] | z [F,B,^D] z [F,B,D] | z [^G,B,E] z [G,B,E] | z [^G,B,E] z [G,B,E] | %41
 z [F,^A,E] z [F,A,E] | z [F,^A,E] z [F,A,E] | z [F,B,^D] z [F,B,D] | z [=G,A,^D] z [G,A,D] | %45
 z [^G,B,E] z [G,B,E] | z [G,A,^D] z [G,A,D] | z [^G,B,E] z [G,B,E] | z [^G,CE] z [G,CE] | %49
 z [F,B,^D] z [F,B,D] | z [F,^A,E] z [F,A,E] | z [F,B,^D] z [F,B,D] | z [F,^A,E] z [F,A,E] | %53
 z [F,B,=D] z [F,B,D] | z [F,^A,E] z [F,A,E] | z [F,B,D] z [F,B,D] |"_cresc." z [F,B,D] z [F,B,D] | %57
 z [F,^G,D] z [F,G,D] |!>(! z [F,^G,D] z [F,G,D]!>)! |!>(! z [F,B,D] z [F,B,D]!>)! | %60
 z [F,B,D]!pp! z [F,B,D] | z [F,^G,D] z [F,G,D] | z [F,^G,D] z [F,G,D] | z [F,B,D] z [F,B,D] | %64
"_cresc." z [F,B,D] z [F,B,D] | z [G,=CE] z [G,CE] | z [G,=CE] z [G,CE] | z [F,B,D] z [F,B,D] | %68
 z [F,B,D] z [F,B,D] | z [F,^A,E] z [F,A,E] | z [F,^A,E] z [F,A,E] | z [F,B,D]- [F,B,D]2- | %72
 [F,B,D]2 z2 :|!p! (!>!d4 | c2 e>d | c2 B2) |!<(! z (BAB | =cAF>D | D2)!<)!!>(! (^C>D | %79
 E2 =C2!>)! | B,4) |"^dim." D4- | D4- | D4- | D2 z2 |] %85
V:3
 (.B,,,[F,,D,])!pp! (.B,,,[F,,D,]) | (.B,,,[F,,D,]) (.B,,,[F,,D,]) |: %2
 (.B,,,[F,,D,]) (.B,,,[F,,D,]) | (.B,,,[F,,D,]) (.B,,,[F,,D,]) | (.B,,,[F,,D,]) (.B,,,[F,,D,]) | %5
 (.B,,,[F,,D,]) (.B,,,[F,,D,]) | (.B,,,[F,,D,]) (.B,,,[F,,D,]) | (.B,,,[F,,D,]) (.B,,,[F,,D,]) | %8
 (.B,,,[F,,D,]) (.B,,,[F,,D,]) || (.B,,,[F,,D,]) (.B,,,[F,,D,]) | (.B,,,[F,,D,]) (.B,,,[F,,D,]) | %11
 B,,, z [B,,,F,,] z | [B,,,F,,] z [B,,,F,,] z | [B,,,F,,] z [B,,,F,,] z | [E,,B,,] z [E,,B,,] z | %15
 [B,,,F,,] z [B,,,F,,] z | [B,,,F,,] z [B,,,F,,] z | [E,,B,,] z [E,,B,,] z | [F,,C,] z [F,,C,] z | %19
 [B,,,F,,] z [B,,,F,,] z | [B,,,F,,] z [B,,,F,,] z | [B,,,F,,] z [B,,,F,,] z | %22
 [B,,,F,,] z [B,,,F,,] z | [B,,,F,,] z [B,,,F,,] z | [E,,B,,] z [E,,B,,] z | %25
 [B,,,F,,] z [B,,,F,,] z | [B,,,F,,] z [B,,,F,,] z | [D,,A,,] z [D,,A,,] z | [A,,E,] z [A,,E,] z | %29
 [D,,A,,] z [D,,A,,] z | [F,,C,] z [F,,C,] z | [B,,,F,,] z [B,,,F,,] z | [F,,C,] z [F,,C,] z | %33
 [B,,,F,,] z [B,,,F,,] z | [B,,,F,,] z [B,,,F,,] z | [B,,,F,,] z [B,,,F,,] z | %36
 [B,,,F,,] z [B,,,F,,] z | [B,,,F,,] z [B,,,F,,] z | [B,,,F,,] z [B,,,F,,] z | %39
 [E,,B,,] z [E,,B,,] z | [E,,B,,] z [E,,B,,] z | [F,,C,] z [F,,C,] z | [F,,C,] z [F,,C,] z | %43
 [B,,,F,,] z [B,,,F,,] z | !>![B,,F,] z [B,,F,] z | !>![E,,B,,] z [E,,B,,] z | %46
 !>![B,,F,] z [B,,F,] z | [E,,B,,] z [E,,B,,] z | [E,,B,,] z [E,,B,,] z | [B,,,F,,] z [B,,,F,,] z | %50
 [F,,C,] z [F,,C,] z | [B,,,F,,] z [B,,,F,,] z | [F,,C,] z [F,,C,] z | [B,,,F,,] z [B,,,F,,] z | %54
 [B,,,F,,] z [B,,,F,,] z | [B,,,F,,] z [B,,,F,,] z | [B,,,F,,] z [B,,,F,,] z | %57
 [F,,C,] z [F,,C,] z | [F,,C,] z [F,,C,] z | [B,,,F,,] z [B,,,F,,] z | [B,,,F,,] z [B,,,F,,] z | %61
 [F,,C,] z [F,,C,] z | [F,,C,] z [F,,C,] z | [B,,,F,,] z [B,,,F,,] z | [B,,,F,,] z [B,,,F,,] z | %65
 [E,,B,,] z [E,,B,,] z | [E,,B,,] z [E,,B,,] z | [B,,,F,,] z [B,,,F,,] z | %68
 [B,,,F,,] z [B,,,F,,] z | [E,,B,,] z [E,,B,,] z | [F,,C,] z [F,,C,] z | %71
 (.B,,,[F,,D,]) (.B,,,[F,,D,]) | (.B,,,[F,,D,]) (.B,,,[F,,D,]) :| (.B,,,[F,,D,]) (.B,,,[F,,D,]) | %74
 (.B,,,[F,,D,]) (.B,,,[F,,D,]) | (.B,,,[F,,D,]) (.B,,,[F,,D,]) | (.B,,,[F,,D,]) (.B,,,[F,,D,]) | %77
 (.B,,,[F,,D,]) (.B,,,[F,,D,]) | (.B,,,[F,,D,]) (.B,,,[F,,D,]) | (.B,,,[F,,D,]) (.B,,,[F,,D,]) | %80
 (.B,,,[F,,D,]) (.B,,,[F,,D,]) | (.B,,,[F,,D,]) (.B,,,[F,,D,]) | B,,, z [F,,D,] z | %83
 B,,, z [F,,D,] z | B,,,2 z2 |] %85
V:4
 x4 | x4 |: x4 | x4 | x4 | x4 | x4 | x4 | x4 || x4 | x4 | x4 | x4 | x4 | x4 | x4 | x4 | x4 | x4 | %19
 x4 | x4 | x4 | x4 | x4 | x4 | x4 | x4 | x4 | x4 | x4 | x4 | x4 | x4 | x4 | x4 | x4 | x4 | x4 | %38
 x4 | x4 | x4 | x4 | x4 | x4 | x4 | x4 | x4 | x4 | x4 | x4 | x4 | x4 | x4 | x4 | x4 | x4 | x4 | %57
 x4 | x4 | x4 | x4 | x4 | x4 | x4 | x4 | x4 | x4 | x4 | x4 | x4 | x4 | x4 | x4 :| x4 | x4 | x4 | %76
 x4 | x4 | x4 | x4 | z D- D2- | [F,B,]4- | [F,B,]4- | [F,B,]4- | [F,B,]2 x2 |] %85
V:5
 x4 | x4 |: x4 | x4 | x4 | x4 | x4 | x4 | x4 || x4 | x4 | x4 | x4 | x4 | x4 | x4 | x4 | x4 | x4 | %19
 x4 | x4 | x4 | x4 | x4 | x4 | x4 | x4 | x4 | x4 | x4 | x4 | x4 | x4 | x4 | x4 | x4 | x4 | x4 | %38
 x4 | x4 | x4 | x4 | x4 | x4 | x4 | x4 | x4 | x4 | x4 | x4 | x4 | x4 | x4 | x4 | x4 | x4 | x4 | %57
 x4 | x4 | x4 | x4 | x4 | x4 | x4 | x4 | x4 | x4 | x4 | x4 | x4 | x4 | x4 | x4 :| x4 | x4 | x4 | %76
 x4 | x4 | x4 | x4 | x D,- D,2 | x4 | x4 | x4 | x4 |] %85

